focus-field-horizontal.svg

<svg fill="currentColor" viewBox="0 0 24 24"><path d="M19 19h-4v2h4c1.1 0 2-.9 2-2v-4h-2m0-12h-4v2h4v4h2V5c0-1.1-.9-2-2-2M5 5h4V3H5c-1.1 0-2 .9-2 2v4h2m0 6H3v4c0 1.1.9 2 2 2h4v-2H5zm2-4h2v2H7zm4 0h2v2h-2zm4 0h2v2h-2z"/></svg>

<svg  viewBox="0 0 24 24" fill="currentColor"><path  d="M19 19H15V21H19C20.1 21 21 20.1 21 19V15H19M19 3H15V5H19V9H21V5C21 3.9 20.1 3 19 3M5 5H9V3H5C3.9 3 3 3.9 3 5V9H5M5 15H3V19C3 20.1 3.9 21 5 21H9V19H5V15M7 11H9V13H7V11M11 11H13V13H11V11M15 11H17V13H15V11Z"/></svg>
